svg/fluentui-system-icons/ic_fluent_document_search_20_regular.svg

<svg width="20" height="20" viewBox="0 0 20 20" fill="none" xmlns="http://www.w3.org/2000/svg">
<path d="M10 12C10 12.9244 9.68644 13.7755 9.15987 14.4529L12.8515 18.1445C13.0468 18.3398 13.0468 18.6564 12.8515 18.8516C12.6562 19.0469 12.3397 19.0469 12.1444 18.8516L8.45275 15.16C7.77542 15.6865 6.92432 16 6 16C3.79086 16 2 14.2091 2 12C2 9.79086 3.79086 8 6 8C8.20914 8 10 9.79086 10 12ZM6 15C7.65685 15 9 13.6569 9 12C9 10.3431 7.65685 9 6 9C4.34315 9 3 10.3431 3 12C3 13.6569 4.34315 15 6 15ZM5.5 3C5.22386 3 5 3.22386 5 3.5V7.10002C4.6522 7.17062 4.3175 7.27732 4 7.41604V3.5C4 2.67157 4.67157 2 5.5 2H10.5858C10.9836 2 11.3651 2.15804 11.6464 2.43934L15.5607 6.35355C15.842 6.63486 16 7.01639 16 7.41421V16.5C16 17.3284 15.3284 18 14.5 18H13.9132C13.8411 17.7946 13.7229 17.6017 13.5586 17.4374L13.1212 17H14.5C14.7761 17 15 16.7761 15 16.5V8H11.5C10.6716 8 10 7.32843 10 6.5V3H5.5ZM11 3.20711V6.5C11 6.77614 11.2239 7 11.5 7H14.7929L11 3.20711Z" fill="#212121"/>
</svg>

<svg xmlns="http://www.w3.org/2000/svg" width="20" height="20"><path d="M10 12c0 .924-.314 1.775-.84 2.453l3.691 3.692a.5.5 0 1 1-.707.707L8.453 15.16A4 4 0 1 1 10 12Zm-4 3a3 3 0 1 0 0-6 3 3 0 0 0 0 6ZM5.5 3a.5.5 0 0 0-.5.5v3.6c-.348.07-.683.177-1 .316V3.5A1.5 1.5 0 0 1 5.5 2h5.086a1.5 1.5 0 0 1 1.06.44l3.915 3.914A1.5 1.5 0 0 1 16 7.414V16.5a1.5 1.5 0 0 1-1.5 1.5h-.587a1.494 1.494 0 0 0-.354-.563L13.12 17h1.38a.5.5 0 0 0 .5-.5V8h-3.5A1.5 1.5 0 0 1 10 6.5V3H5.5Zm5.5.207V6.5a.5.5 0 0 0 .5.5h3.293L11 3.207Z"/></svg>
